!! 00000] TT[00
!!!OTL: Gua difeng
!!!ARE: Asia, China,Gansu
!! Ethnic Group: Han
!! Zhongguo Minge Xuan, S. 185
!!!SCT: C0515
!!!YEM: Copyright 1995, estate of Helmut Schaffrath.
**kern
*ICvox
*Ivox
*M2/4
*k[b-e-a-d-]
*A-:
{8ee-
8ee-
8cc
8ee-
=1
4ff
8aa-
8ff
=2
4ee-
4ee-}
=3
{8cc
8ee-
8ee-
8cc
=4
8b-
8cc
4ee-
=5
8ee-
8cc
8b-
8a-
=6
2b-}
=7
{8ee-
8cc
4ee-
=8
8ee-
8cc
8b-
8a-
=9
4f
8a-
8b-
=10
8cc
4b-
8cc}
=11
{4f
8a-
8b-
=12
8cc
4b-
8cc
=13
8a-
8b-
8a-
8f
=14
2e-}
==
!!!AGN: Xiaodiao
!! 12-Monatslied
!!!ONB: ESAC (Essen Associative Code) Database: CHINA_011
!!!AMT: simple duple
!!!AIN: vox
!!!EED: Helmut Schaffrath
!!!EEV: 1.0
*-
